symbolic/64x64/apps/vico.svg

<svg xmlns="http://www.w3.org/2000/svg" width="64" height="64" version="1.1">
 <path style="opacity:0.2" d="m 31.953516,18.000229 c -0.776564,0.0087 -1.517938,0.232802 -2.06719,0.625009 L 4.8749889,36.488219 c -1.1666522,0.833835 -1.1666522,2.185181 0,3.019016 L 29.886326,57.3758 c 1.167168,0.832266 3.057446,0.832266 4.224612,0 L 59.12501,39.507234 c 1.166654,-0.833836 1.166654,-2.18518 0,-3.019016 L 34.110938,18.625238 c -0.57137,-0.407986 -1.34959,-0.633437 -2.157422,-0.625009 z"/>
 <path style="fill:#4f4f4f" d="m 31.953516,17.000228 c -0.776564,0.0087 -1.517938,0.232802 -2.06719,0.625009 L 4.8749889,35.488219 c -1.1666522,0.833835 -1.1666522,2.18518 0,3.019016 L 29.886326,56.3758 c 1.167168,0.832266 3.057446,0.832266 4.224612,0 L 59.12501,38.507234 c 1.166654,-0.833836 1.166654,-2.18518 0,-3.019016 L 34.110938,17.625237 c -0.57137,-0.407986 -1.34959,-0.633436 -2.157422,-0.625009 z"/>
 <path style="opacity:0.2" d="m 31.953516,8.0000954 c -0.776564,0.00864 -1.517938,0.232802 -2.06719,0.625009 L 4.8749889,26.488086 c -1.1666522,0.833838 -1.1666522,2.18518 0,3.019018 L 29.886326,47.375668 c 1.167168,0.832264 3.057446,0.832264 4.224612,0 L 59.12501,29.507104 c 1.166654,-0.833838 1.166654,-2.185179 0,-3.019017 L 34.110938,8.6251044 c -0.57137,-0.407985 -1.34959,-0.6334364 -2.157422,-0.625009 z"/>
 <path style="fill:#e4e4e4" d="m 31.953516,7.0000945 c -0.776564,0.00864 -1.517938,0.232802 -2.06719,0.625009 L 4.8749889,25.488086 c -1.1666522,0.833838 -1.1666522,2.18518 0,3.019018 L 29.886326,46.375668 c 1.167168,0.832264 3.057446,0.832264 4.224612,0 L 59.12501,28.507104 c 1.166654,-0.833838 1.166654,-2.18518 0,-3.019018 L 34.110938,7.6251035 c -0.57137,-0.407985 -1.34959,-0.6334364 -2.157422,-0.625009 z"/>
 <path style="opacity:0.2;fill:#ffffff" d="M 31.953125 7 C 31.176561 7.00864 30.435971 7.232793 29.886719 7.625 L 4.875 25.488281 C 4.1158241 26.030885 3.8676158 26.789497 4.0996094 27.484375 C 4.2231533 27.120006 4.4758333 26.773576 4.875 26.488281 L 29.886719 8.625 C 30.435971 8.232793 31.176561 8.00864 31.953125 8 C 32.760957 7.9915726 33.538005 8.217015 34.109375 8.625 L 59.125 26.488281 C 59.524167 26.773576 59.776847 27.120006 59.900391 27.484375 C 60.132385 26.789497 59.884177 26.030885 59.125 25.488281 L 34.109375 7.625 C 33.538005 7.217015 32.760957 6.9915726 31.953125 7 z"/>
 <path style="opacity:0.4" d="m 22.97656,12.557404 -1.216798,0.870548 29.159386,20.940592 1.219532,-0.87055 z m -9.898443,7.073204 -1.219531,0.867759 29.16212,20.940593 1.216798,-0.87055 z"/>
 <path style="fill:#3f3f3f" d="m 24.209762,11.678485 -3.658594,2.614435 15.02266,10.731182 3.658598,-2.614436 z m -9.901176,7.070413 -3.658595,2.614436 15.022663,10.731183 3.66133,-2.614437 z"/>
 <path style="opacity:0.1" d="M 21.25 14.792969 L 20.550781 15.292969 L 35.574219 26.023438 L 36.744141 25.1875 L 50.919922 35.369141 L 52.138672 34.498047 L 51.441406 33.996094 L 50.919922 34.369141 L 36.744141 24.1875 L 35.574219 25.023438 L 21.25 14.792969 z M 11.349609 21.863281 L 10.650391 22.363281 L 25.671875 33.09375 L 26.84375 32.257812 L 41.021484 42.439453 L 42.238281 41.568359 L 41.541016 41.068359 L 41.021484 41.439453 L 26.84375 31.257812 L 25.671875 32.09375 L 11.349609 21.863281 z M 38.533203 22.910156 L 37.962891 23.318359 L 38.660156 23.818359 L 39.232422 23.410156 L 38.533203 22.910156 z M 28.632812 29.980469 L 28.060547 30.388672 L 28.759766 30.890625 L 29.333984 30.480469 L 28.632812 29.980469 z"/>
</svg>

<svg xmlns="http://www.w3.org/2000/svg" width="64" height="64"><path style="opacity:.2" d="M31.954 18c-.777.009-1.518.233-2.068.625L4.875 36.488c-1.167.834-1.167 2.185 0 3.02l25.011 17.868c1.167.832 3.058.832 4.225 0l25.014-17.869c1.167-.834 1.167-2.185 0-3.019L34.111 18.625c-.571-.408-1.35-.633-2.157-.625z"/><path style="fill:#4f4f4f" d="M31.954 17c-.777.009-1.518.233-2.068.625L4.875 35.488c-1.167.834-1.167 2.185 0 3.02l25.011 17.868c1.167.832 3.058.832 4.225 0l25.014-17.869c1.167-.834 1.167-2.185 0-3.019L34.111 17.625c-.571-.408-1.35-.633-2.157-.625z"/><path style="opacity:.2" d="M31.954 8c-.777.009-1.518.233-2.068.625L4.875 26.488c-1.167.834-1.167 2.185 0 3.02l25.011 17.868c1.167.832 3.058.832 4.225 0l25.014-17.869c1.167-.834 1.167-2.185 0-3.019L34.111 8.625c-.571-.408-1.35-.633-2.157-.625z"/><path style="fill:#e4e4e4" d="M31.954 7c-.777.009-1.518.233-2.068.625L4.875 25.488c-1.167.834-1.167 2.185 0 3.02l25.011 17.868c1.167.832 3.058.832 4.225 0l25.014-17.869c1.167-.834 1.167-2.185 0-3.019L34.111 7.625c-.571-.408-1.35-.633-2.157-.625z"/><path style="opacity:.2;fill:#fff" d="M31.953 7c-.776.009-1.517.233-2.066.625L4.875 25.488c-.76.543-1.007 1.301-.775 1.996.123-.364.376-.71.775-.996L29.887 8.625c.549-.392 1.29-.616 2.066-.625.808-.008 1.585.217 2.156.625l25.016 17.863c.4.286.652.632.775.996.232-.695-.016-1.453-.775-1.996L34.109 7.625c-.571-.408-1.348-.633-2.156-.625z"/><path style="opacity:.4" d="m22.977 12.557-1.217.871 29.16 20.94 1.219-.87zm-9.899 7.074-1.22.867L41.022 41.44l1.217-.87z"/><path style="fill:#3f3f3f" d="m24.21 11.678-3.659 2.615 15.023 10.731 3.658-2.614zm-9.901 7.07-3.659 2.615 15.023 10.732 3.661-2.615z"/><path style="opacity:.1" d="m21.25 14.793-.7.5 15.024 10.73 1.17-.835L50.92 35.368l1.219-.871-.698-.502-.521.373-14.176-10.181-1.17.835-14.324-10.23zm-9.9 7.07-.7.5 15.022 10.73 1.172-.835L41.02 42.439l1.217-.87-.697-.5-.52.37-14.177-10.181-1.172.836-14.322-10.23zm27.183 1.047-.57.408.697.5.572-.408-.699-.5zm-9.9 7.07-.572.409.699.502.574-.41-.701-.5z"/></svg>
